X:11
T:Braes Of Auchtertyre, The
R:strathspey
H:Related to the reel "Miss Monaghan" reel#254, reel#552
Z:id:hn-strathspey-11
M:C
L:1/8
K:D
D/D/D D>E F<AA>B | d>ef>e d>BA>d | B/B/B B>A B2b2 | a<da>f e2d2 |
D3E F<AA>B | d>ef>e d>BA>d | B<dA<d G<dF>d | f/e/d/c/ d>F E2D2 ||
f>ga>b a<fd>a | b>ge>g f>ed>A | B/B/B B>A B2b2 | a<dg>f e3g |
f>ga>b a<fd>a | b>ge>g f>ed>A | B<dA<d G<dF>d | f/e/d/c/ d>F E2D2 ||

